!!!OTL: Here Comes Santa Claus
!!!COM: Haldeman, Oakley
!!!LYR: Autry, Gene
!!!ODT: 1946
!!!YOR: The Christmas Fake Book, p. 44
!!!YOY: 1995
!!!AST: Christmas song
!!!YEC: Brian Luke, 2001
**kern	**harm
*k[b-]	*k[b-]
*M4/4	*M4/4
*F:	*F:
*>A	*>A
=1	=1
4c	I
4a	.
8g	.
8g	.
4f	.
=2	=2
4c	.
4a	.
8g	.
8g	.
4f	.
=3	=3
4c	V7
4b-	.
8b-	.
8b-	.
4a	vo7
=4	=4
1b-	V7
=5	=5
4c	.
8b-	.
8b-	.
4a	.
8g	.
8g	.
=6	=6
4c	.
4b-	.
4a	.
8g	.
8g	.
=7	=7
4c	I
4cc	.
4cc	.
4b	io7
=8	=8
2.cc	I
4r	.
*>B	*>B
=9	=9
4dd	IV
4ff	.
4ee	#ivo7
4dd	.
=10	=10
4cc	Ic
4ee	.
4dd	V7/ii
4cc	.
=11	=11
4b-	ii7
4b-	.
6dd	V7
6cc	.
6b-	.
=12	=12
1a	I
*>B'	*>B'
=13	=13
4dd	IV
4ff	.
4ee	#ivo7
8dd	.
8dd	.
=14	=14
4cc	Ic
4ee	.
4dd	V7/ii
4a	.
=15	=15
8cc	ii7
8cc	.
4b-	.
4a	V7
4g	.
=16	=16
2.f	I
4r	.
*-	*-
